X:403
T:Lady Charlotte Campbell
R:Strathspey
C:Nathaniel Gow
B:The Athole Collection
M:C
L:1/8
K:G
c|d>cB>G A<c B>c|d>cB>G E>AF>D|d>cB>G A<c B>d|
e>cA>F G>AB>c:|
|:g/f/g/a/ g>d B>gd>g|a/g/f/e/ f>g a<A A>d|1 g/f/g/a/ g>d B>gd>g|
e>cA>F G2 G>d:|2 g>db>f g>de>c|B<d D>F G>AB>c||

